images/themes/default/algorithms/mAlgorithmRandomPointsOnLines.svg

<svg height="24" viewBox="0 0 6.35 6.35" width="24" xmlns="http://www.w3.org/2000/svg"><g fill="none" stroke="#afafaf" stroke-opacity=".99435" stroke-width=".264583"><path d="m.23699003.19522033 2.13227477 3.19985367-.2750832 1.2245639-1.7481093 1.499647"/><path d="m2.4225069.50226379 2.8839365 1.41091051-.5945347 3.5405868"/><path d="m3.842291 1.1500403-.9317335.7010185.2750832 1.3665423.5324192 3.3631137"/></g><g fill="#c00" stroke="#5e5e5e" stroke-linecap="round" stroke-width=".18342"><circle cx="4.418235" cy="1.402765" r=".305165"/><circle cx="5.057982" cy="3.492684" r=".305165"/><circle cx="2.86619" cy=".724105" r=".305165"/><circle cx="2.928305" cy="1.87768" r=".305165"/><circle cx="3.700313" cy="6.332253" r=".305165"/><circle cx=".958354" cy="1.256524" r=".305165"/><circle cx="1.570636" cy="5.089942" r=".305165"/><circle cx=".807502" cy="5.711097" r=".305165"/></g></svg>

<?xml version="1.0" encoding="UTF-8" standalone="no"?>
<svg
   xmlns:dc="http://purl.org/dc/elements/1.1/"
   xmlns:cc="http://creativecommons.org/ns#"
   xmlns:rdf="http://www.w3.org/1999/02/22-rdf-syntax-ns#"
   xmlns:svg="http://www.w3.org/2000/svg"
   xmlns="http://www.w3.org/2000/svg"
   xmlns:sodipodi="http://sodipodi.sourceforge.net/DTD/sodipodi-0.dtd"
   xmlns:inkscape="http://www.inkscape.org/namespaces/inkscape"
   width="24"
   height="24"
   viewBox="0 0 6.35 6.35"
   version="1.1"
   id="svg20"
   sodipodi:docname="mAlgorithmRandomPointsOnLines.svg"
   inkscape:version="0.92.4 (f8dce91, 2019-08-02)">
  <metadata
     id="metadata26">
    <rdf:RDF>
      <cc:Work
         rdf:about="">
        <dc:format>image/svg+xml</dc:format>
        <dc:type
           rdf:resource="http://purl.org/dc/dcmitype/StillImage" />
      </cc:Work>
    </rdf:RDF>
  </metadata>
  <defs
     id="defs24" />
  <sodipodi:namedview
     pagecolor="#ffffff"
     bordercolor="#666666"
     borderopacity="1"
     objecttolerance="10"
     gridtolerance="10"
     guidetolerance="10"
     inkscape:pageopacity="0"
     inkscape:pageshadow="2"
     inkscape:window-width="1312"
     inkscape:window-height="1127"
     id="namedview22"
     showgrid="false"
     inkscape:zoom="29.816738"
     inkscape:cx="7.3227221"
     inkscape:cy="10.572049"
     inkscape:window-x="67"
     inkscape:window-y="27"
     inkscape:window-maximized="0"
     inkscape:current-layer="svg20" />
  <g
     id="g4547"
     style="stroke:#afafaf;stroke-opacity:0.99435025">
    <path
       sodipodi:nodetypes="cccc"
       inkscape:connector-curvature="0"
       id="path3733"
       d="M 0.23699003,0.19522033 2.3692648,3.395074 2.0941816,4.6196379 0.3460723,6.1192849"
       style="fill:none;stroke:#afafaf;stroke-width:0.26458332px;stroke-linecap:butt;stroke-linejoin:miter;stroke-opacity:0.99435025" />
    <path
       sodipodi:nodetypes="ccc"
       inkscape:connector-curvature="0"
       id="path4540"
       d="M 2.4225069,0.50226379 5.3064434,1.9131743 4.7119087,5.4537611"
       style="fill:none;stroke:#afafaf;stroke-width:0.26458332px;stroke-linecap:butt;stroke-linejoin:miter;stroke-opacity:0.99435025" />
    <path
       sodipodi:nodetypes="cccc"
       inkscape:connector-curvature="0"
       id="path4542"
       d="M 3.842291,1.1500403 2.9105575,1.8510588 3.1856407,3.2176011 3.7180599,6.5807148"
       style="fill:none;stroke:#afafaf;stroke-width:0.26458332px;stroke-linecap:butt;stroke-linejoin:miter;stroke-opacity:0.99435025" />
  </g>
  <circle
     cx="4.4182353"
     cy="1.4027646"
     id="circle6"
     style="fill:#cc0000;fill-opacity:1;stroke:#5e5e5e;stroke-width:0.18342039;stroke-linecap:round;stroke-miterlimit:4;stroke-dasharray:none;stroke-opacity:1"
     r="0.30516481" />
  <circle
     cx="5.0579815"
     cy="3.4926841"
     id="circle6-3"
     style="fill:#cc0000;fill-opacity:1;stroke:#5e5e5e;stroke-width:0.18342039;stroke-linecap:round;stroke-miterlimit:4;stroke-dasharray:none;stroke-opacity:1"
     r="0.30516481" />
  <circle
     cx="2.8661895"
     cy="0.72410506"
     id="circle6-6"
     style="fill:#cc0000;fill-opacity:1;stroke:#5e5e5e;stroke-width:0.18342039;stroke-linecap:round;stroke-miterlimit:4;stroke-dasharray:none;stroke-opacity:1"
     r="0.30516481" />
  <circle
     cx="2.9283047"
     cy="1.8776797"
     id="circle6-7"
     style="fill:#cc0000;fill-opacity:1;stroke:#5e5e5e;stroke-width:0.18342039;stroke-linecap:round;stroke-miterlimit:4;stroke-dasharray:none;stroke-opacity:1"
     r="0.30516481" />
  <circle
     cx="3.7003126"
     cy="6.3322525"
     id="circle6-5"
     style="fill:#cc0000;fill-opacity:1;stroke:#5e5e5e;stroke-width:0.18342039;stroke-linecap:round;stroke-miterlimit:4;stroke-dasharray:none;stroke-opacity:1"
     r="0.30516481" />
  <circle
     cx="0.95835429"
     cy="1.2565242"
     id="circle6-35"
     style="fill:#cc0000;fill-opacity:1;stroke:#5e5e5e;stroke-width:0.18342039;stroke-linecap:round;stroke-miterlimit:4;stroke-dasharray:none;stroke-opacity:1"
     r="0.30516481" />
  <circle
     cx="1.5706362"
     cy="5.0899415"
     id="circle6-62"
     style="fill:#cc0000;fill-opacity:1;stroke:#5e5e5e;stroke-width:0.18342039;stroke-linecap:round;stroke-miterlimit:4;stroke-dasharray:none;stroke-opacity:1"
     r="0.30516481" />
  <circle
     cx="0.80750227"
     cy="5.7110972"
     id="circle6-9"
     style="fill:#cc0000;fill-opacity:1;stroke:#5e5e5e;stroke-width:0.18342039;stroke-linecap:round;stroke-miterlimit:4;stroke-dasharray:none;stroke-opacity:1"
     r="0.30516481" />
</svg>
